icons/windows-fill.svg

<svg viewBox="0 0 24 24" fill="currentColor" xmlns="http://www.w3.org/2000/svg"><path d="M3.00098 5.47902L10.3778 4.4625V11.5902H3.00098V5.47902ZM3.00098 18.521L10.3778 19.5375V12.4982H3.00098V18.521ZM11.1894 19.646L21.001 21V12.4982H11.1894V19.646ZM11.1894 4.35402V11.5902H21.001V3L11.1894 4.35402Z"/></svg>

<svg xmlns="http://www.w3.org/2000/svg" viewBox="0 0 24 24">
    <g>
        <path fill="none" d="M0 0H24V24H0z"/>
        <path d="M3 5.479l7.377-1.016v7.127H3V5.48zm0 13.042l7.377 1.017v-7.04H3v6.023zm8.188 1.125L21 21v-8.502h-9.812v7.148zm0-15.292v7.236H21V3l-9.812 1.354z"/>
    </g>
</svg>
